icons/cake-fill.svg

<svg viewBox="0 0 24 24" fill="currentColor" xmlns="http://www.w3.org/2000/svg">
    <path d="M13 6.99993V10.9999L20 10.9999C20.5523 10.9999 21 11.4476 21 11.9999V19.9999L23 19.9999V21.9999H1V19.9999L3 19.9999V11.9999C3 11.4476 3.44772 10.9999 4 10.9999L11 10.9999V6.99993H13ZM13.8301 0.401855C14.6586 1.83673 14.1669 3.6715 12.7321 4.49993L11 5.49993C10.1716 4.06505 10.6632 2.23028 12.0981 1.40186L13.8301 0.401855Z"/>
</svg>

<svg xmlns="http://www.w3.org/2000/svg" viewBox="0 0 24 24">
    <g>
        <path fill="none" d="M0 0h24v24H0z"/>
        <path d="M13 7v4h7a1 1 0 0 1 1 1v8h2v2H1v-2h2v-8a1 1 0 0 1 1-1h7V7h2zm.83-6.598A3 3 0 0 1 12.732 4.5L11 5.5a3 3 0 0 1 1.098-4.098l1.732-1z"/>
    </g>
</svg>
